lib/brands/logos/giropay.svg

<svg xmlns="http://www.w3.org/2000/svg" fill="none" aria-hidden="true" viewBox="0 0 173 68"><g id="Giropay"><path id="Subtract" fill="#0F3365" fill-rule="evenodd" d="M12.8629 5.01097C8.79624 5.01763 5.50604 8.01638 5.49813 11.7222V56.2789C5.49912 56.742 5.55139 57.1941 5.65006 57.6306C6.34072 60.6867 9.30457 62.9838 12.8629 62.9902H89.4898V5.01097H12.8629ZM12.8626 0H159.515C166.62 0.00111003 172.376 5.24546 172.378 11.7219V56.2786C172.376 62.7529 166.62 67.9978 159.515 68H12.8626C5.7577 67.9978 0.00243403 62.7529 0 56.2786V11.7219C0.00243403 5.24546 5.7577 0.00111003 12.8626 0Z" clip-rule="evenodd"/><path id="Union" fill="#FFFFFE" fill-rule="evenodd" d="M102.031 48.9896H95.5979V25.1756H101.531V28.2381H101.603C102.89 25.8599 105.607 24.7848 108.538 24.7848C113.686 24.7848 116.508 29.2483 116.508 33.3521C116.508 38.3694 113.542 42.5392 108.001 42.5392C105.75 42.5392 103.319 41.7911 102.103 39.7714H102.031V48.9896ZM105.965 38.0431C108.395 38.0431 109.861 36.1872 109.861 33.4826C109.861 31.2336 108.466 29.28 105.965 29.28C103.605 29.28 102.031 31.1698 102.031 33.7101C102.031 36.1872 103.82 38.0431 105.965 38.0431ZM141.16 48.9893C142.484 49.2508 143.805 49.3812 145.164 49.3812C150.729 49.3812 152.284 45.6981 153.972 41.7008L153.972 41.699C154.074 41.4592 154.175 41.2184 154.278 40.9771L161.107 25.1753H154.673L150.847 36.2512H150.776L146.772 25.1753H139.84L147.378 42.5389C146.917 44.0375 145.701 44.885 144.13 44.885C143.234 44.885 142.447 44.789 141.591 44.5259L141.16 48.9893ZM138.763 42.6999C138.477 41.3645 138.404 40.0297 138.404 38.6932V32.3733C138.404 27.1933 134.294 25.3373 129.54 25.3373C126.787 25.3373 124.392 25.6942 122.105 26.5428L122.211 30.5167C124 29.6054 126.072 29.2463 128.144 29.2463C130.469 29.2463 132.364 29.8652 132.399 32.179C131.577 32.0475 130.435 31.9487 129.398 31.9487C125.966 31.9487 119.782 32.5697 119.782 37.7492C119.782 41.4317 123.07 43.0929 126.752 43.0929C129.398 43.0929 131.185 42.1466 132.649 40.0297H132.719C132.719 40.5462 132.757 41.0631 132.795 41.586V41.5861C132.822 41.9538 132.849 42.3244 132.864 42.6999H138.763ZM125.786 37.3264C125.786 35.6974 127.502 35.0786 129.682 35.0786C130.366 35.0786 131.032 35.1111 131.654 35.1416C131.91 35.1541 132.159 35.1663 132.399 35.1757C132.399 37.1621 130.864 39.1846 128.431 39.1846C126.93 39.1846 125.786 38.4975 125.786 37.3264Z" clip-rule="evenodd"/><path id="Union_2" fill="#D8232A" fill-rule="evenodd" d="M39.6807 42.1469H46.1144V25.1751H39.6807V42.1469ZM39.6807 22.406H46.1144V18.1058H39.6807V22.406ZM85.9376 33.6789C85.9376 39.2824 81.2545 42.5392 75.108 42.5392C68.9602 42.5392 64.2772 39.2824 64.2772 33.6789C64.2772 28.0416 68.9602 24.7848 75.108 24.7848C81.2545 24.7848 85.9376 28.0416 85.9376 33.6789ZM70.9255 33.6789C70.9255 36.1875 72.1407 38.4342 75.1078 38.4342C78.0743 38.4342 79.2901 36.1875 79.2901 33.6789C79.2901 31.1374 78.0743 28.8896 75.1078 28.8896C72.1407 28.8896 70.9255 31.1374 70.9255 33.6789ZM61.8498 24.7849C62.5995 24.7849 63.3857 24.8826 64.0295 24.9786L63.707 29.8655C62.9932 29.6707 62.2776 29.6707 61.5279 29.6707C58.5256 29.6707 56.8449 31.6582 56.8449 34.9822V42.1475H50.4111V25.1756H56.2735V28.302H56.3441C57.4528 26.153 59.0617 24.7849 61.8498 24.7849ZM29.4135 25.1756H35.2412V40.1622C35.2412 47.1326 31.5238 49.3816 24.0173 49.3816C20.9437 49.3816 18.4056 48.7938 16.9038 48.307L17.2263 43.6804C19.1918 44.5601 20.836 45.0807 23.5171 45.0807C27.2351 45.0807 29.2358 43.4851 29.2358 40.1622V39.2481H29.1634C27.6276 41.2378 25.4832 42.1475 22.9098 42.1475C17.7977 42.1475 14.6165 38.632 14.6165 33.613C14.6165 28.5629 17.2263 24.7849 23.0163 24.7849C25.768 24.7849 27.9848 26.153 29.3436 28.2371H29.4135V25.1756ZM24.9115 29.2799C22.5164 29.2799 21.2653 31.202 21.2653 33.5142C21.2653 36.1522 22.9813 37.6524 24.9115 37.6524C27.1982 37.6524 29.0219 35.8935 29.0219 33.286C29.0219 31.3957 27.8061 29.2799 24.9115 29.2799Z" clip-rule="evenodd"/></g></svg>

<svg xmlns="http://www.w3.org/2000/svg" fill="none" aria-hidden="true" viewBox="0 0 173 68"><path fill="#0F3365" fill-rule="evenodd" d="M12.863 5.011c-4.067.007-7.357 3.005-7.365 6.711V56.28c.001.463.053.915.152 1.352.69 3.056 3.655 5.353 7.213 5.36H89.49V5.01H12.863Zm0-5.011h146.652c7.105.001 12.861 5.245 12.863 11.722v44.557c-.002 6.474-5.758 11.719-12.863 11.721H12.863C5.758 67.998.003 62.753 0 56.279V11.722C.002 5.245 5.758.002 12.863 0Z" clip-rule="evenodd"/><path fill="#FFFFFE" fill-rule="evenodd" d="M102.031 48.99h-6.433V25.175h5.934v3.063h.071c1.287-2.378 4.004-3.453 6.936-3.453 5.148 0 7.969 4.463 7.969 8.567 0 5.017-2.966 9.187-8.507 9.187-2.251 0-4.682-.748-5.898-2.768h-.072v9.219Zm3.935-10.947c2.429 0 3.895-1.856 3.895-4.56 0-2.25-1.394-4.203-3.895-4.203-2.361 0-3.935 1.89-3.935 4.43 0 2.477 1.789 4.333 3.935 4.333ZM141.16 48.99a20.52 20.52 0 0 0 4.004.392c5.565 0 7.12-3.683 8.808-7.68V41.7l.306-.722 6.829-15.802h-6.434l-3.826 11.076h-.071l-4.004-11.076h-6.932l7.539 17.364c-.462 1.498-1.678 2.346-3.249 2.346-.896 0-1.683-.096-2.539-.36l-.431 4.464Zm-2.397-6.29c-.286-1.334-.359-2.67-.359-4.006v-6.32c0-5.18-4.11-7.036-8.864-7.036-2.753 0-5.148.357-7.435 1.206l.106 3.974c1.789-.912 3.861-1.27 5.933-1.27 2.325 0 4.22.618 4.256 2.932a20.449 20.449 0 0 0-3.002-.23c-3.432 0-9.616.62-9.616 5.8 0 3.683 3.289 5.344 6.971 5.344 2.645 0 4.432-.947 5.897-3.063h.07c0 .516.037 1.033.076 1.556.026.368.053.738.068 1.114h5.899Zm-12.977-5.373c0-1.629 1.716-2.248 3.897-2.248.683 0 1.349.033 1.971.063.256.013.506.025.746.035 0 1.986-1.536 4.009-3.969 4.009-1.501 0-2.645-.688-2.645-1.859Z" clip-rule="evenodd"/><path fill="#D8232A" fill-rule="evenodd" d="M39.68 42.147h6.434V25.175h-6.433v16.972Zm0-19.741h6.434v-4.3h-6.433v4.3Zm46.258 11.273c0 5.603-4.684 8.86-10.83 8.86-6.148 0-10.83-3.257-10.83-8.86 0-5.637 4.682-8.894 10.83-8.894 6.146 0 10.83 3.257 10.83 8.894Zm-15.013 0c0 2.508 1.216 4.755 4.183 4.755 2.966 0 4.182-2.246 4.182-4.755 0-2.542-1.216-4.79-4.182-4.79-2.967 0-4.183 2.248-4.183 4.79Zm-9.075-8.894c.75 0 1.536.098 2.18.194l-.323 4.887c-.714-.195-1.43-.195-2.18-.195-3.002 0-4.682 1.987-4.682 5.311v7.165H50.41V25.176h5.862v3.126h.071c1.109-2.149 2.718-3.517 5.506-3.517Zm-32.437.39h5.828v14.987c0 6.97-3.717 9.22-11.224 9.22-3.073 0-5.611-.588-7.113-1.075l.322-4.627c1.966.88 3.61 1.4 6.291 1.4 3.718 0 5.719-1.595 5.719-4.918v-.914h-.073c-1.535 1.99-3.68 2.9-6.253 2.9-5.112 0-8.294-3.516-8.294-8.535 0-5.05 2.61-8.828 8.4-8.828 2.752 0 4.969 1.368 6.328 3.452h.07v-3.061Zm-4.502 4.105c-2.395 0-3.646 1.922-3.646 4.234 0 2.638 1.716 4.138 3.646 4.138 2.287 0 4.11-1.758 4.11-4.366 0-1.89-1.215-4.006-4.11-4.006Z" clip-rule="evenodd"/></svg>
